icons/verified-24.svg

<svg width="24" height="24" viewBox="0 0 24 24" xmlns="http://www.w3.org/2000/svg">
  <path d="M17.0303 9.78033C17.3232 9.48744 17.3232 9.01256 17.0303 8.71967C16.7374 8.42678 16.2626 8.42678 15.9697 8.71967L10.5 14.1893L8.03033 11.7197C7.73744 11.4268 7.26256 11.4268 6.96967 11.7197C6.67678 12.0126 6.67678 12.4874 6.96967 12.7803L9.96967 15.7803C10.2626 16.0732 10.7374 16.0732 11.0303 15.7803L17.0303 9.78033Z"/>
  <path fill-rule="evenodd" clip-rule="evenodd" d="M14.136 1.19988C12.8649 0.266707 11.1351 0.266706 9.86399 1.19988L8.48866 2.20955C8.21462 2.41073 7.89603 2.5427 7.56 2.59422L5.87355 2.85278C4.31488 3.09174 3.09174 4.31487 2.85278 5.87355L2.59422 7.56C2.5427 7.89603 2.41073 8.21463 2.20955 8.48866L1.19988 9.86399C0.266707 11.1351 0.266706 12.8649 1.19988 14.136L2.20955 15.5113C2.41073 15.7854 2.5427 16.104 2.59422 16.44L2.85278 18.1265C3.09174 19.6851 4.31487 20.9083 5.87355 21.1472L7.56 21.4058C7.89603 21.4573 8.21462 21.5893 8.48866 21.7904L9.86399 22.8001C11.1351 23.7333 12.8649 23.7333 14.136 22.8001L15.5113 21.7904C15.7854 21.5893 16.104 21.4573 16.44 21.4058L18.1265 21.1472C19.6851 20.9083 20.9083 19.6851 21.1472 18.1265L21.4058 16.44C21.4573 16.104 21.5893 15.7854 21.7904 15.5113L22.8001 14.136C23.7333 12.8649 23.7333 11.1351 22.8001 9.86399L21.7904 8.48866C21.5893 8.21463 21.4573 7.89603 21.4058 7.56L21.1472 5.87355C20.9083 4.31488 19.6851 3.09174 18.1265 2.85278L16.44 2.59422C16.104 2.5427 15.7854 2.41073 15.5113 2.20955L14.136 1.19988ZM10.7517 2.40903C11.4945 1.86366 12.5055 1.86366 13.2483 2.40903L14.6237 3.4187C15.0926 3.76293 15.6377 3.98874 16.2127 4.07689L17.8991 4.33545C18.8101 4.47511 19.5249 5.18994 19.6645 6.10087L19.9231 7.78732C20.0113 8.36229 20.2371 8.90744 20.5813 9.37633L21.591 10.7517C22.1363 11.4945 22.1363 12.5055 21.591 13.2483L20.5813 14.6237C20.2371 15.0926 20.0113 15.6377 19.9231 16.2127L19.6645 17.8991C19.5249 18.8101 18.8101 19.5249 17.8991 19.6645L16.2127 19.9231C15.6377 20.0113 15.0926 20.2371 14.6237 20.5813L13.2483 21.591C12.5055 22.1363 11.4945 22.1363 10.7517 21.591L9.37633 20.5813C8.90744 20.2371 8.36229 20.0113 7.78732 19.9231L6.10087 19.6645C5.18994 19.5249 4.47511 18.8101 4.33545 17.8991L4.07689 16.2127C3.98874 15.6377 3.76293 15.0926 3.4187 14.6237L2.40903 13.2483C1.86366 12.5055 1.86366 11.4945 2.40903 10.7517L3.4187 9.37633C3.76293 8.90744 3.98874 8.36229 4.07689 7.78732L4.33545 6.10087C4.47511 5.18994 5.18994 4.47511 6.10087 4.33545L7.78732 4.07689C8.36229 3.98874 8.90744 3.76293 9.37633 3.4187L10.7517 2.40903Z"/>
</svg>

<svg xmlns="http://www.w3.org/2000/svg" width="24" height="24" viewBox="0 0 24 24"><path d="M17.03 9.78a.75.75 0 00-1.06-1.06l-5.47 5.47-2.47-2.47a.75.75 0 00-1.06 1.06l3 3a.75.75 0 001.06 0l6-6z"/><path fill-rule="evenodd" d="M14.136 1.2a3.61 3.61 0 00-4.272 0L8.489 2.21a2.11 2.11 0 01-.929.384l-1.686.259a3.61 3.61 0 00-3.021 3.02L2.594 7.56a2.11 2.11 0 01-.384.929L1.2 9.864a3.61 3.61 0 000 4.272l1.01 1.375c.2.274.333.593.384.929l.259 1.686a3.61 3.61 0 003.02 3.021l1.687.259c.336.051.655.183.929.384l1.375 1.01a3.61 3.61 0 004.272 0l1.375-1.01a2.11 2.11 0 01.929-.384l1.686-.259a3.61 3.61 0 003.021-3.02l.259-1.687a2.11 2.11 0 01.384-.929l1.01-1.375a3.61 3.61 0 000-4.272l-1.01-1.375a2.11 2.11 0 01-.384-.929l-.259-1.686a3.61 3.61 0 00-3.02-3.021l-1.687-.259a2.11 2.11 0 01-.929-.384L14.136 1.2zm-3.384 1.209a2.11 2.11 0 012.496 0l1.376 1.01a3.61 3.61 0 001.589.658l1.686.258a2.11 2.11 0 011.765 1.766l.26 1.686a3.61 3.61 0 00.657 1.59l1.01 1.375a2.11 2.11 0 010 2.496l-1.01 1.376a3.61 3.61 0 00-.658 1.589l-.258 1.686a2.11 2.11 0 01-1.766 1.765l-1.686.26a3.61 3.61 0 00-1.59.657l-1.375 1.01a2.11 2.11 0 01-2.496 0l-1.376-1.01a3.61 3.61 0 00-1.589-.658l-1.686-.258a2.11 2.11 0 01-1.766-1.766l-.258-1.686a3.61 3.61 0 00-.658-1.59l-1.01-1.375a2.11 2.11 0 010-2.496l1.01-1.376a3.61 3.61 0 00.658-1.589l.258-1.686a2.11 2.11 0 011.766-1.766l1.686-.258a3.61 3.61 0 001.59-.658l1.375-1.01z"/></svg>
